X: 1895
T: Urfa Dîvânı
C: (Anonim)
O: Turkey
F: http://compmusic.upf.edu/node/140
N: huseyni--divan--sofyan----
N: makam= huseyni
N: form= divan
N: usul= sofyan = 4/4
M: 4/4
L: 1/16
K: C _2/4B ^3/4f  
Q: 1/4=114
%%MIDI tuningsystem comma53
.e4 z4 .e4 z4  | e2dd e2c2 d2e2 e2z2  | \
w:   |   | 
e2dd e2c2 d2e2 e2z2  | 
w:   | 
.e2dd e2c2 d6e2  | d2e2 c2d2 e=fed e2z2  | \
w:   |   | 
.e2dd e2c2 d6e2  | 
w:   | 
decB c2d2 cdBc A4  | ABAG A2B2 c2d2 .e2.=f.g  | 
w:   |   | 
eede ddcd ccBc B2A2  | A6cd BcAB G4  | 
w:   |   | 
ABAG A2B2 c2d2 .e2.=f.g  | eede ddcd ccBc B2A2  | 
w:   |   | 
A6A2 A2A2 A4  | e2dd e2c2 d2e2 e2z2  | \
w:   |   | 
e2dd e2c2 d2e2 e2z2  | 
w:   | 
.e2dd e2c2 d6e2  | d2e2 c2d2 e=fed e2z2  | \
w:   |   | 
.e2dd e2c2 d6e2  | 
w:   | 
decB c2d2 cdBc A4  | ABAG A2B2 c2d2 .e2.=f.g  | 
w:   |   | 
eede ddcd ccBc B2A2  | A6cd BcAB G4  | 
w:   |   | 
ABAG A2B2 c2d2 .e2.=f.g  | eede ddcd ccBc B2A2  | 
w:   |   | 
A6A2 A2A2 A4  | ^f2g2 .a.b.ag f2g2 .a.b.ag  | \
w:   |   | 
a2ac' b2{c'}a2 {b}g2f2 gag^2/4f  | 
w:   | 
ede=f e2d2 c2B2 A4  | ^f2g2 .a.b.ag f2g2 .a.b.ag  | 
w:   |   | 
a2ac' b2{c'}a2 {b}g2f2 gag^2/4f  | \
w:   | 
ede=f e2de c2d2 e4  | 
w:   | 
e2dd e2c2 d2e2 e2z2  | e2dd e2c2 d2e2 e2z2  | \
w:   |   | 
.e2dd e2c2 d6e2  | 
w:   | 
d2e2 c2d2 e=fed e2z2  | .e2dd e2c2 d6e2  | \
w:   |   | 
decB c2d2 cdBc A4  | 
w:   | 
ABAG A2B2 c2d2 .e2.=f.g  | eede ddcd ccBc B2A2  | 
w:   |   | 
A6cd BcAB G4  | ABAG A2B2 c2d2 .e2.=f.g  | \
w:   |   | 
eede ddcd ccBc B2A2  | 
w:   | 
A6A2 A2A2 A4  | e2dd e2c2 d2e2 e2z2  | \
w:   |   | 
e2dd e2c2 d2e2 e2z2  | 
w:   | 
.e2dd e2c2 d6e2  | d2e2 c2d2 e=fed e2z2  | \
w:   |   | 
.e2dd e2c2 d6e2  | 
w:   | 
decB c2d2 cdBc A4  | ABAG A2B2 c2d2 .e2.=f.g  | 
w:   |   | 
eede ddcd ccBc B2A2  | A6cd BcAB G4  | 
w:   |   | 
ABAG A2B2 c2d2 .e2.=f.g  | eede ddcd ccBc B2A2  | 
w:   |   | 
A6A2 A2A2 A4  | c'6b2 b6a2  | agab abga ^fgfe d4  | 
w:   |   |   | 
c'bc'd' c'2bc' babc' b2ab  | .a4 z4 z8  | \
w:   |   | 
c'6b2 b6a2  | 
w:   | 
agab abga ^fgfe d4  | c'bc'd' c'2bc' babc' b2ab  | 
w:   |   | 
.a4 z4 z8  | g2a2 a2f2 g2a2 a2f2  | g2a2 a2g2 =f2e2 d4  | \
w:   |   |   | 
d2e2 e2c2 d2e2 e2c2  | 
w:   | 
d2e=f efd2 dec2 cdB2  | c2d2 d2B2 c2d2 d2B2  | \
w:   |   | 
c2de d2c2 c2B2 B2A2  | 
w:   | 
ABAG A2B2 c2d2 .e4  | eede ddcd ccBc B2A2  | 
w:   |   | 
A6cd BcAB G4  | ABAG A2B2 c2d2 .e4  | \
w:   |   | 
eede ddcd ccBc B2A2  | 
w:   | 
A6A2 A2A2 A4  | e2dd e2c2 d2e2 e2z2  | \
w:   |   | 
e2dd e2c2 d2e2 e2z2  | 
w:   | 
.e2dd e2c2 d6e2  | d2e2 c2d2 e=fed e2z2  | \
w:   |   | 
.e2dd e2c2 d6e2  | 
w:   | 
decB c2d2 cdBc A4  | ABAG A2B2 c2d2 .e2.=f.g  | 
w:   |   | 
eede ddcd ccBc B2A2  | A6cd BcAB G4  | 
w:   |   | 
ABAG A2B2 c2d2 .e2.=f.g  | eede ddcd ccBc B2A2  | 
w:   |   | 
A6A2 A2A2 A4  | e2dd e2c2 d2e2 e2z2  | \
w:   |   | 
e2dd e2c2 d2e2 e2z2  | 
w:   | 
.e2dd e2c2 d6e2  | d2e2 c2d2 e=fed e2z2  | \
w:   |   | 
.e2dd e2c2 d6e2  | 
w:   | 
decB c2d2 cdBc A4  | ABAG A2B2 c2d2 .e2.=f.g  | 
w:   |   | 
eede ddcd ccBc B2A2  | A6cd BcAB G4  | 
w:   |   | 
ABAG A2B2 c2d2 .e2.=f.g  | eede ddcd ccBc B2A2  | 
w:   |   | 
A6A2 A2A2 A4  | |


